svgs/sharp-regular/car-bus.svg

<svg xmlns="http://www.w3.org/2000/svg" viewBox="0 0 640 512"><!--! Font Awesome Pro 6.6.0 by @fontawesome - https://fontawesome.com License - https://fontawesome.com/license (Commercial License) Copyright 2024 Fonticons, Inc. --><path d="M48 128l0 80 120 0 0-80L48 128zm0 128l0 120 144 0 0 48L80 424l0 32 0 24-48 0 0-24 0-32-8 0L0 424l0-24L0 88l0-5.7 2.5-5.1C11 60.4 31 41.2 61.3 26.4C92.2 11.3 135.2 0 192 0C312.9 0 365.4 45.2 381.5 77.3l2.5 5.1 0 5.7 0 40-48 0-120 0 0 80 45.6 0-11.1 32.1-1.8 0-56.7-.4 0 16.3L48 256zM321.4 80C301.9 65.2 263.6 48 192 48c-50.4 0-86.1 10-109.7 21.6c-7.1 3.5-13 7-17.9 10.4L192 80l129.4 0zM104 288a24 24 0 1 1 0 48 24 24 0 1 1 0-48zM311.1 160l16.9 0 208 0 16.9 0 5.7 15.9L592.9 272l47.1 0 0 48 0 80 0 16 0 32 0 64-48 0 0-64-320 0 0 64-48 0 0-64 0-32 0-16 0-80 0-48 47.1 0 34.3-96.1 5.7-15.9zM576.6 320c-.4 0-.7 0-1.1 0l-286.9 0c-.4 0-.7 0-1.1 0L272 320l0 80 320 0 0-80-15.4 0zM519.1 208l-174.2 0-22.9 64 219.9 0-22.9-64zM336 336a24 24 0 1 1 0 48 24 24 0 1 1 0-48zm168 24a24 24 0 1 1 48 0 24 24 0 1 1 -48 0z"/></svg>

<svg xmlns="http://www.w3.org/2000/svg" viewBox="0 0 640 512"><!--! Font Awesome Pro 6.4.0 by @fontawesome - https://fontawesome.com License - https://fontawesome.com/license (Commercial License) Copyright 2023 Fonticons, Inc. --><path d="M48 128v80H168V128H48zm0 128V376H192l0 48H80v32 24H32V456 424H24 0V400 88 82.3l2.5-5.1C11 60.4 31 41.2 61.3 26.4C92.2 11.3 135.2 0 192 0C312.9 0 365.4 45.2 381.5 77.3l2.5 5.1V88v40l-48 0H216v80h45.6l-11.1 32.1-1.8 0-56.7-.4V256H48zM321.4 80C301.9 65.2 263.6 48 192 48c-50.4 0-86.1 10-109.7 21.6c-7.1 3.5-13 7-17.9 10.4H192 321.4zM104 288a24 24 0 1 1 0 48 24 24 0 1 1 0-48zM311.1 160H328 536h16.9l5.7 15.9L592.9 272H640v48 80 16 32 64H592V448H272v64H224V448 416 400 320 272h47.1l34.3-96.1 5.7-15.9zM576.6 320c-.4 0-.7 0-1.1 0H288.6c-.4 0-.7 0-1.1 0H272v80H592V320H576.6zM519.1 208H344.9l-22.9 64H541.9l-22.9-64zM336 336a24 24 0 1 1 0 48 24 24 0 1 1 0-48zm168 24a24 24 0 1 1 48 0 24 24 0 1 1 -48 0z"/></svg>
